assets/build/img/timer.svg

<svg width="19" height="19" viewBox="0 0 19 19" fill="none" xmlns="http://www.w3.org/2000/svg">
<path d="M7.27344 1.48438H11.7266C12.1365 1.48438 12.4688 1.1521 12.4688 0.742188C12.4688 0.332277 12.1365 0 11.7266 0H7.27344C6.86353 0 6.53125 0.332277 6.53125 0.742188C6.53125 1.1521 6.86353 1.48438 7.27344 1.48438Z" fill="#DCB900"/>
<path d="M11.5992 7.68708L8.97523 10.3111C8.68537 10.6009 8.68533 11.0708 8.97519 11.3607C9.26513 11.6506 9.73501 11.6505 10.0248 11.3607L12.6488 8.73668C12.9387 8.44686 12.9387 7.97694 12.6489 7.68708C12.359 7.39726 11.8891 7.39729 11.5992 7.68708Z" fill="#DCB900"/>
<path d="M9.5 2.67188C4.98798 2.67188 1.33594 6.32329 1.33594 10.8359C1.33594 15.348 4.98731 19 9.5 19C14.0121 19 17.6641 15.3485 17.6641 10.8359C17.6641 6.32392 14.0126 2.67188 9.5 2.67188ZM9.5 17.5156C5.81682 17.5156 2.82031 14.5191 2.82031 10.8359C2.82031 7.15276 5.81682 4.15625 9.5 4.15625C13.1832 4.15625 16.1797 7.15276 16.1797 10.8359C16.1797 14.5191 13.1832 17.5156 9.5 17.5156Z" fill="#DCB900"/>
</svg>

<svg width="19" height="19" viewBox="0 0 19 19" fill="none" xmlns="http://www.w3.org/2000/svg"><path d="M7.273 1.484h4.454a.742.742 0 100-1.484H7.273a.742.742 0 100 1.484zM11.6 7.687l-2.625 2.624a.742.742 0 101.05 1.05l2.624-2.624a.742.742 0 10-1.05-1.05z" fill="#DCB900"/><path d="M9.5 2.672a8.16 8.16 0 00-8.164 8.164A8.16 8.16 0 009.5 19a8.16 8.16 0 008.164-8.164A8.16 8.16 0 009.5 2.672zm0 14.844a6.687 6.687 0 01-6.68-6.68 6.687 6.687 0 016.68-6.68 6.687 6.687 0 016.68 6.68 6.687 6.687 0 01-6.68 6.68z" fill="#DCB900"/></svg>
